assets/icon/feetSlot.svg

<svg viewBox="0 0 150 143" xmlns="http://www.w3.org/2000/svg"><path d="m71.23 97.66h-45.81v-17.82l7.91-5.59h8.2v-19.93h29.7zm-43.29-2.49h40.77v-38.36h-24.66v19.93h-9.92l-6.19 4.37z" fill="#f69200" transform="translate(.5 -1.5)"/><path d="m123.58 97.66h-45.81v-43.34h29.7v19.93h8.2l7.91 5.59zm-43.29-2.49h40.77v-14.06l-6.19-4.37h-9.87v-19.93h-24.71z" fill="#f69200" transform="translate(.5 -1.5)"/><g fill="none"><path d="m0 0h150"/><path d="m150 143h-150"/></g></svg>

<svg id="Layer_1" data-name="Layer 1" xmlns="http://www.w3.org/2000/svg" viewBox="0 0 150 143"><g id="Layer_2" data-name="Layer 2"><g id="Layer_1-2" data-name="Layer 1-2"><path d="M71.23,97.66H25.42V79.84l7.91-5.59h8.2V54.32h29.7ZM27.94,95.17H68.71V56.81H44.05V76.74H34.13l-6.19,4.37Z" transform="translate(0.5 -1.5)" fill="#f69200"/><path d="M123.58,97.66H77.77V54.32h29.7V74.25h8.2l7.91,5.59ZM80.29,95.17h40.77V81.11l-6.19-4.37H105V56.81H80.29Z" transform="translate(0.5 -1.5)" fill="#f69200"/><line x2="150" fill="none"/><line x1="150" y1="143" y2="143" fill="none"/></g></g></svg>
